icon-svg/mazda.svg

<svg xmlns="http://www.w3.org/2000/svg" fill="#44739e" viewBox="0 0 24 24"><path d="m20.41 7.1-.069-.082-.172.171.043-.369-.2.221A9.13 9.13 0 0 1 16.5 9.2a7.418 7.418 0 0 0-4.5 3.713 7.613 7.613 0 0 0-4.567-3.59A8.955 8.955 0 0 1 3.888 7.2L3.7 7.017l-.067.083a7.834 7.834 0 0 0-1.623 5.157c0 5.369 3.364 8.091 10 8.091s10-2.722 10-8.091a7.775 7.775 0 0 0-1.6-5.157m-.787 1.642-.326.246-.215.14-.456.25-.48.218-.255.1c-.283.114-.567.221-.854.329-.241.09-.483.182-.726.278l-.543.221-.559.257-.268.145-.534.323-.459.314a3.045 3.045 0 0 1 .933-1.243l.231-.126.79-.372c.347-.152.7-.3 1.049-.441l.322-.133.553-.255.561-.279.557-.335.537-.391.26-.217zm-6.242 2.747.359-.341a2.9 2.9 0 0 0-.286.838l-.335.326-.012.014a2.21 2.21 0 0 1 .274-.837m-8.689-3.13.536.345.558.3.833.377c.23.1.462.188.7.281s.45.179.671.27l.518.222c.3.367.625.771.915 1.194l-.623-.326-.855-.389c-.282-.113-.566-.223-.848-.333s-.538-.21-.807-.317l-.53-.218-.492-.241-.468-.26-.218-.142-.4-.29-.035-.044-.132-.452-.044-.228c-.018-.128-.038-.255-.057-.382l.241.219zm7.23 6.07.089.176.087-.177c1.3-2.643 3.2-3.355 5.047-4.044a9.1 9.1 0 0 0 2.786-1.414l-.019.126.012.027a7.9 7.9 0 0 1 .654 3.136c.061 3.127-1.375 6.905-8.556 7.144-4.4-.034-7.077-1.388-8.179-4.139l-.011-.03-.027-.017A4.25 4.25 0 0 1 2.4 13.11l-.011-.026-.021-.825.011-.613.043-.577.077-.545.109-.513.13-.491.153-.454.184-.425.206-.4.229-.37.065-.094a2.6 2.6 0 0 0 .368 1.313A10.17 10.17 0 0 0 6.9 10.605c1.9.728 3.85 1.481 5.022 3.824m3.4-2.321 3.749-1.334.525-1.4a16.05 16.05 0 0 1-3.717 1.76 6.62 6.62 0 0 0-3.956 3.836l-.011.711a6.25 6.25 0 0 1 3.41-3.573m-6.822.12a6.04 6.04 0 0 1 3.41 3.454v-.711a6.745 6.745 0 0 0-4.11-3.759 15.36 15.36 0 0 1-3.6-1.706l.525 1.443zM5.282 8.127a.46.46 0 0 0 .181.039.41.41 0 0 0 .144-.026l.031-.011.017-.029c1.1-1.706 3.113-2.5 6.323-2.5h.078c3.1 0 5.06.77 6.18 2.417l.058.086 1.666-1.266.175-.13-.074-.08c-1.619-1.762-4.339-2.655-8.083-2.655-3.844 0-6.609.942-8.217 2.8L3.7 6.84l.176.16a6.5 6.5 0 0 0 1.406 1.127m8.729-3.719.823.1.826.163.8.205.78.27.379.163.363.17.7.432.324.238.312.258.279.259-.551.325a9.607 9.607 0 0 0-6.9-2.273h-.173c-3.2-.018-5.35.7-7.206 2.424l-.566-.346.422-.407.314-.259.32-.236.346-.216.354-.194.37-.173.377-.162.779-.271.8-.206.822-.163.414-.054 1.24-.109.815-.033 1.186.011Zm5.311 7.918c0 5.411-3.6 6.5-7.377 6.493-3.793.011-7.378-1.082-7.378-6.493a9.8 9.8 0 0 1 .066-1.18l-.82-1.629a9.52 9.52 0 0 0-.437 2.809A6.073 6.073 0 0 0 4.5 16.043c.819.327.994.754 1.53 1.082l.186.207.251.208.262.2.271.172.285.163.295.143.295.131.306.109.317.1.317.088.328.076.339.066.338.055.339.043.35.033.35.022.349.022.361.011h.732l.361-.011.35-.022.35-.022.349-.033.339-.043.339-.055.339-.066.328-.076.317-.088.317-.1.31-.109.3-.131.295-.143.284-.163.273-.175.263-.2.251-.208.23-.229.218-.241.208-.262.2-.284a4.733 4.733 0 0 0 1.748-3.979 7.19 7.19 0 0 0-.47-2.74l-.59 1.2a9.45 9.45 0 0 1 .112 1.532"/></svg>

<?xml version="1.0" encoding="UTF-8"?>
<svg width="24px" fill="#44739e" height="24px" viewBox="0 0 24 24" version="1.1" xmlns="http://www.w3.org/2000/svg" xmlns:xlink="http://www.w3.org/1999/xlink">
            <path d="M 20.41,7.1 20.341,7.018 20.169,7.189 20.212,6.82 20.012,7.041 A 9.13,9.13 0 0 1 16.5,9.2 7.418,7.418 0 0 0 12,12.913 7.613,7.613 0 0 0 7.433,9.323 8.955,8.955 0 0 1 3.888,7.2 L 3.7,7.017 3.633,7.1 A 7.834,7.834 0 0 0 2.01,12.257 c 0,5.369 3.364,8.091 10,8.091 6.636,0 10,-2.722 10,-8.091 A 7.775,7.775 0 0 0 20.41,7.1 Z m -0.787,1.642 -0.326,0.246 -0.215,0.14 -0.456,0.25 -0.48,0.218 -0.255,0.1 c -0.283,0.114 -0.567,0.221 -0.854,0.329 -0.241,0.09 -0.483,0.182 -0.726,0.278 l -0.543,0.221 -0.559,0.257 -0.268,0.145 -0.534,0.323 -0.459,0.314 a 3.045,3.045 0 0 1 0.933,-1.243 l 0.231,-0.126 0.79,-0.372 c 0.347,-0.152 0.7,-0.3 1.049,-0.441 l 0.322,-0.133 0.553,-0.255 0.561,-0.279 0.557,-0.335 0.537,-0.391 0.26,-0.217 z m -6.242,2.747 0.359,-0.341 a 2.9,2.9 0 0 0 -0.286,0.838 l -0.335,0.326 -0.012,0.014 a 2.212,2.212 0 0 1 0.274,-0.837 z m -8.689,-3.13 0.536,0.345 0.558,0.3 0.833,0.377 c 0.23,0.1 0.462,0.188 0.7,0.281 0.238,0.093 0.45,0.179 0.671,0.27 l 0.518,0.222 c 0.3,0.367 0.625,0.771 0.915,1.194 L 8.8,11.022 7.945,10.633 C 7.663,10.52 7.379,10.41 7.097,10.3 6.815,10.19 6.559,10.09 6.29,9.983 L 5.76,9.765 5.268,9.524 4.8,9.264 4.582,9.122 4.182,8.832 4.147,8.788 4.015,8.336 3.971,8.108 C 3.953,7.98 3.933,7.853 3.914,7.726 l 0.241,0.219 z m 7.23,6.07 0.089,0.176 0.087,-0.177 c 1.3,-2.643 3.2,-3.355 5.047,-4.044 A 9.1,9.1 0 0 0 19.931,8.97 l -0.019,0.126 0.012,0.027 a 7.9,7.9 0 0 1 0.654,3.136 c 0.061,3.127 -1.375,6.905 -8.556,7.144 -4.4,-0.034 -7.077,-1.388 -8.179,-4.139 L 3.832,15.234 3.805,15.217 A 4.252,4.252 0 0 1 2.4,13.11 L 2.389,13.084 2.368,12.259 2.379,11.646 2.422,11.069 2.499,10.524 2.608,10.011 2.738,9.52 2.891,9.066 3.075,8.641 3.281,8.241 3.51,7.871 3.575,7.777 A 2.6,2.6 0 0 0 3.943,9.09 10.172,10.172 0 0 0 6.9,10.605 c 1.9,0.728 3.85,1.481 5.022,3.824 z m 3.4,-2.321 3.749,-1.334 0.525,-1.4 a 16.053,16.053 0 0 1 -3.717,1.76 6.62,6.62 0 0 0 -3.956,3.836 l -0.011,0.711 a 6.249,6.249 0 0 1 3.41,-3.573 z M 8.5,12.228 a 6.039,6.039 0 0 1 3.41,3.454 V 14.971 A 6.745,6.745 0 0 0 7.8,11.212 15.361,15.361 0 0 1 4.2,9.506 l 0.525,1.443 z M 5.282,8.127 A 0.461,0.461 0 0 0 5.463,8.166 0.413,0.413 0 0 0 5.607,8.14 L 5.638,8.129 5.655,8.1 c 1.1,-1.706 3.113,-2.5 6.323,-2.5 h 0.078 c 3.1,0 5.06,0.77 6.18,2.417 l 0.058,0.086 1.666,-1.266 0.175,-0.13 -0.074,-0.08 C 18.442,4.865 15.722,3.972 11.978,3.972 c -3.844,0 -6.609,0.942 -8.217,2.8 L 3.7,6.84 3.876,7 a 6.489,6.489 0 0 0 1.406,1.127 z m 8.729,-3.719 0.823,0.1 0.826,0.163 0.8,0.205 0.78,0.27 0.379,0.163 0.363,0.17 0.7,0.432 0.324,0.238 0.312,0.258 0.279,0.259 -0.551,0.325 a 9.607,9.607 0 0 0 -6.9,-2.273 H 11.973 C 8.773,4.7 6.623,5.418 4.767,7.142 L 4.201,6.796 4.623,6.389 4.937,6.13 5.257,5.894 5.603,5.678 5.957,5.484 6.327,5.311 6.704,5.149 7.483,4.878 8.283,4.672 9.105,4.509 9.519,4.455 10.759,4.346 11.574,4.313 12.76,4.324 Z m 5.311,7.918 c 0,5.411 -3.6,6.5 -7.377,6.493 C 8.152,18.83 4.567,17.737 4.567,12.326 a 9.783,9.783 0 0 1 0.066,-1.18 L 3.813,9.517 A 9.515,9.515 0 0 0 3.376,12.326 6.073,6.073 0 0 0 4.5,16.043 c 0.819,0.327 0.994,0.754 1.53,1.082 l 0.186,0.207 0.251,0.208 0.262,0.2 0.271,0.172 0.285,0.163 0.295,0.143 0.295,0.131 0.306,0.109 0.317,0.1 0.317,0.088 0.328,0.076 0.339,0.066 0.338,0.055 0.339,0.043 0.35,0.033 0.35,0.022 0.349,0.022 0.361,0.011 h 0.732 l 0.361,-0.011 0.35,-0.022 0.35,-0.022 0.349,-0.033 0.339,-0.043 0.339,-0.055 0.339,-0.066 0.328,-0.076 0.317,-0.088 0.317,-0.1 0.31,-0.109 0.3,-0.131 0.295,-0.143 0.284,-0.163 0.273,-0.175 0.263,-0.2 0.251,-0.208 0.23,-0.229 0.218,-0.241 0.208,-0.262 0.2,-0.284 A 4.733,4.733 0 0 0 20.27,12.334 7.189,7.189 0 0 0 19.8,9.594 l -0.59,1.2 a 9.451,9.451 0 0 1 0.112,1.532 z"/>

</svg>
